X:1
T:Title
%%score { ( 1 3 ) | ( 2 4 ) }
L:1/8
M:6/8
K:D
V:1 treble nm="Grand Piano"
V:3 treble 
V:2 bass 
V:4 bass 
V:1
 z3 z2[Q:1/4=100] [FA] | [FA]2 [FA] [FB]2 [DF] | [FA]2 [EG] [EG]2 [EG] | [EG]2 [EG] [CA]2 [CE] | %4
[M:5/8] [EG]2 F F2 |[M:1/8] E |[M:3/4] D2 E F2 [DFA] |[M:7/8] [DGB]2 [DAc] [DBd]3 [DGB] | %8
[M:3/4] [DFA]2 [DGB][DFA] [A,D][B,EG] | [DF]2[K:bass] [G,CE] [F,D]3 |[M:1/8][K:treble] [DFA] | %11
[M:3/4] [DFA]>[DFA] [DA][CGA] [DGB][EGc] | d6 | ed B[FA] FD |[M:5/8] E3 [EA]2 |[M:1/8] [EG] | %16
[M:3/4] [DF][DF] [EG] [FA]2 [Fd] |[M:7/8] edB d3 B |[M:3/4] AF d[EGc]- [EGc]/[EGB]/[Gc] | %19
[M:5/8] [Fd]-[Fd]- [Fd]3 |] %20
V:2
 z3 z2 [D,D] | [D,D]2 [D,D] [D,D]2 [D,A,] | [A,,A,]2 [A,,A,] [A,,A,]2 [A,,A,] | %3
 [A,,A,]2 [A,,A,] [A,,A,]2 [A,,A,] |[M:5/8] [C,A,]2 [D,A,D] [D,A,D]2 |[M:1/8] [G,A,C] | %6
[M:3/4] [F,A,]2 [E,A,C] [D,A,D]2 D, |[M:7/8] G,2 G, G,3 G, |[M:3/4] D,2 D,D, F,G, | A,2 A,, D,3 | %10
[M:1/8] D, |[M:3/4] D,>D, F,A, A,A, | z F, B, A,2 [D,A,] | [G,B,G]2 [G,DG][K:bass]D [A,D][F,A,] | %14
[M:5/8] [A,C]3 [A,C]2 |[M:1/8] [C,A,] |[M:3/4] [D,A,][D,A,] [D,A,] [D,D]2 [D,=C] | %17
[M:7/8][K:treble] [G,B,G]2 [G,DG] [G,B,G]3 [G,DG] | %18
[M:3/4] [A,DF][A,D] [A,F][K:bass]A,,- A,,/A,,/[A,,A,] |[M:5/8] [D,A,]-[D,A,]- [D,A,]3 |] %20
V:3
 x6 | x6 | x6 | x6 |[M:5/8] x5 |[M:1/8] x |[M:3/4] x6 |[M:7/8] x7 |[M:3/4] x6 | x2[K:bass] x4 | %10
[M:1/8][K:treble] x |[M:3/4] x6 | [DF]D G F2 [Fd] | x6 |[M:5/8] x5 |[M:1/8] x |[M:3/4] x6 | %17
[M:7/8] x7 |[M:3/4] x6 |[M:5/8] x5 |] %20
V:4
 x6 | x6 | x6 | x6 |[M:5/8] x5 |[M:1/8] x |[M:3/4] x6 |[M:7/8] x7 |[M:3/4] x6 | x6 |[M:1/8] x | %11
[M:3/4] x6 | D,6 | z2 z[K:bass] .D,3 |[M:5/8] x5 |[M:1/8] x |[M:3/4] x6 |[M:7/8][K:treble] x7 | %18
[M:3/4] x3[K:bass] x3 |[M:5/8] x5 |] %20

